X:1
T:Tico  Tico
T:Tico  Tico
T:Zequinha de Abreu,  1917
C:Zequinha de Abreu,  1917
L:1/8
Q:1/4=90
M:2/4
K:C
V:1 treble 
V:1
 c/B/^A/ | A/^G/A/B/ d/c/B/c/ | e/G/c/e/ g/^f/=f/e/ | d/c/B/A/ G/F/E/D/ | C2 z/ |: E/^D/E/ | %6
 F/EA/- A/E/^D/E/ | F/E^G/- G/E/^D/E/ | F/E/d/B/ ^G/E/D/^C/ | C2 z/ A/^G/=G/ | F/Ad/- d/c/A/F/ | %11
 E/Ac/- c/c/B/A/ |1 B/B,/^D/^F/ A/c/B/A/ | ^G2 z/ :|2 B/E/^G/B/ e/d/c/B/ | A2 z/ |: B/A/^G/ | %17
 A/C/E/G/ C/E/G/^G/ | A>F z/ B/A/^G/ | A/B,/D/F/ B,/D/F/G/ | A>E z/ c/c/c/ | c/B/B/B/- B/A/A/A/ | %22
 A/F/F/F/- F/B/B/B/ | B/G/G/G/- G/G/A/G/ | E/E/-E/E/- E/B/A/^G/ | A/C/E/G/ C/E/G/^G/ | %26
 A/F/D/B,/- B,/B/A/^G/ | A/B,/D/F/ B,/D/F/G/ | A>E z/ c/B/^A/ | A/^G/A/B/ d/c/B/c/ | %30
 e/G/c/e/ g/^f/=f/e/ | d/c/B/A/ G/F/E/D/ | C2 z/ :: A,/^C/E/ | A/A,/^C/^G/- G/A,/C/E/ | %35
 ^F/A,/^C/E/- E/A,/C/E/ | ^F/A,/^C/E/- E/A,/C/E/ | ^F/B,/D/E/- E/B,/D/E/ | A/B,/D/^G/- G/B,/D/E/ | %39
 ^F/B,/D/E/- E/B,/D/E/ | A/B,/D/^G/- G/B,/D/E/ | ^F/A,/^C/E/- E/A,/C/E/ | A/A,/^C/^G/- G/A,/C/E/ | %43
 ^F/A,/^C/E/- E/A,/C/E/ | ^F/E/^C/A,/ F/E/C/A,/ | B,/A,/B,/^C/ D3/2 z/ | D/^C/D/E/ ^F/^G/A/B/ | %47
 ^c/d/^d/e/ ^f/e/=d/c/ | B/A/^G/^F/ E/D/^C/B,/ | A,2 z/ :: f/e/d/ | B/d/4f/e/4d/ B/d/4f/e/4d/ | %52
 B>B z/ f/e/d/ | B/d/4f/e/4d/ B/d/4f/e/4d/ | A>A z/ d/e/d/ | ^c/d/e/f/ g/^f/g/^g/ | %56
 a/e/-e/a/- a/e/a/^a/ | b/^f/b b/^g/b/g/ | e2 z/ :| %59

